X:256
T:We'll Go To Sea No More
M:C|
L:1/8
Q:1/4=3D150
K:F
C2|\
F3G (AG)FE|D2B,2 F2FF|C2F2 F2A2|G6 CC|
(A,C)(FG) F2FE|D2B,2 F2FF|C2F2 G2A2|G6 C2|
F3G (AG)(FE)|D2B,2 B,2B,2|G3A (BA)(GF)|(F2GF E2)CC|
F3G (AG)(FE)|D2B,2 G2GF|E2GG DDE2|F6 C2|
F6 G2|A6 B2|c2C2 (BG)(AE)|(F2E2 D2)C2|
F6 G2|A6 B2|c2C2 (BG)(AE)|F6 ||
